papirus/48x48/emblems/emblem-unlocked.svg

<?xml version="1.0" encoding="UTF-8" standalone="no"?>
<svg
   xmlns:dc="http://purl.org/dc/elements/1.1/"
   xmlns:cc="http://creativecommons.org/ns#"
   xmlns:rdf="http://www.w3.org/1999/02/22-rdf-syntax-ns#"
   xmlns:svg="http://www.w3.org/2000/svg"
   xmlns="http://www.w3.org/2000/svg"
   xmlns:sodipodi="http://sodipodi.sourceforge.net/DTD/sodipodi-0.dtd"
   xmlns:inkscape="http://www.inkscape.org/namespaces/inkscape"
   version="1.1"
   id="svg2"
   viewBox="0 0 48 48.000001"
   width="48"
   height="48"
   inkscape:version="0.91 r13725"
   sodipodi:docname="emblem-unlocked.svg">
  <sodipodi:namedview
     pagecolor="#ffffff"
     bordercolor="#666666"
     borderopacity="1"
     objecttolerance="10"
     gridtolerance="10"
     guidetolerance="10"
     inkscape:pageopacity="0"
     inkscape:pageshadow="2"
     inkscape:window-width="1600"
     inkscape:window-height="849"
     id="namedview7"
     showgrid="false"
     showguides="false"
     inkscape:guide-bbox="true"
     inkscape:snap-bbox="true"
     inkscape:bbox-paths="true"
     inkscape:bbox-nodes="true"
     inkscape:snap-bbox-edge-midpoints="true"
     inkscape:snap-bbox-midpoints="true"
     inkscape:object-paths="true"
     inkscape:snap-intersection-paths="true"
     inkscape:object-nodes="true"
     inkscape:snap-smooth-nodes="true"
     inkscape:snap-midpoints="true"
     inkscape:zoom="9.28"
     inkscape:cx="23.328429"
     inkscape:cy="32.884533"
     inkscape:window-x="0"
     inkscape:window-y="0"
     inkscape:window-maximized="1"
     inkscape:current-layer="svg2">
    <inkscape:grid
       type="xygrid"
       id="grid3194" />
    <sodipodi:guide
       position="24,30.000001"
       orientation="1,0"
       id="guide3196" />
    <sodipodi:guide
       position="55,24"
       orientation="0,1"
       id="guide3198" />
  </sodipodi:namedview>
  <defs
     id="defs8" />
  <metadata
     id="metadata4">
    <rdf:RDF>
      <cc:Work
         rdf:about="">
        <dc:format>image/svg+xml</dc:format>
        <dc:type
           rdf:resource="http://purl.org/dc/dcmitype/StillImage" />
        <dc:title></dc:title>
      </cc:Work>
    </rdf:RDF>
  </metadata>
  <circle
     cy="24"
     cx="24"
     id="path3197"
     style="opacity:1;fill:#646464;fill-opacity:1;stroke:none;stroke-width:2;stroke-miterlimit:4;stroke-dasharray:none;stroke-opacity:1"
     r="20" />
  <path
     style="color:#000000;opacity:1;enable-background:accumulate;fill:#ffffff;fill-opacity:1"
     d="M 24 12 C 20.279268 12 17.427462 13.734215 17.046875 18 L 20.087891 18 C 20.487569 15.775525 22.241985 15 24 15 C 26.000001 15 28 16 28 19 L 28 22 L 24 22 L 20 22 L 17 22 L 15.666016 22 C 14.742683 22 14 22.749505 14 23.699219 L 14 34.285156 C 14 35.23487 14.742683 36 15.666016 36 L 32.333984 36 C 33.257317 36 34 35.23487 34 34.285156 L 34 23.699219 C 34 22.749505 33.257317 22 32.333984 22 L 31 22 L 31 19 C 31 14.000012 28.000001 12 24 12 z "
     id="path5975" />
</svg>

<?xml version="1.0" encoding="UTF-8" standalone="no"?>
<svg id="svg2" xmlns:rdf="http://www.w3.org/1999/02/22-rdf-syntax-ns#" xmlns="http://www.w3.org/2000/svg" viewBox="0 0 48 48.000001" height="48" width="48" version="1.1" xmlns:cc="http://creativecommons.org/ns#" xmlns:dc="http://purl.org/dc/elements/1.1/">
 <metadata id="metadata4">
  <rdf:RDF>
   <cc:Work rdf:about="">
    <dc:format>image/svg+xml</dc:format>
    <dc:type rdf:resource="http://purl.org/dc/dcmitype/StillImage"/>
    <dc:title/>
   </cc:Work>
  </rdf:RDF>
 </metadata>
 <circle id="path3197" cx="24" cy="24" r="20" fill="#646464"/>
 <path id="path5975" style="color:#000000" d="m24 12c-3.721 0-6.573 1.734-6.953 6h3.041c0.4-2.224 2.154-3 3.912-3 2 0 4 1 4 4v3h-4-4-3-1.334c-0.923 0-1.666 0.75-1.666 1.699v10.586c0 0.95 0.743 1.715 1.666 1.715h16.668c0.923 0 1.666-0.765 1.666-1.715v-10.586c0-0.949-0.743-1.699-1.666-1.699h-1.334v-3c0-5-3-7-7-7z" fill="#fff"/>
</svg>
